X:77
T:Saddle the Pony
M:6/8
L:1/8
K:G Major
D|GBA G2B|def gdB|GBA G2B|AFD AFD|!
GBA G2B|def gfg|ege dBA|BGG G2:|!
d|efe edB|def gfg|ege edB|dBA ABd|!
efe edB|def gfg|ege dBA|BGG G2:|!
